Font-Source/Egyptian2/svg-my/134F0.svg

<?xml version="1.0" encoding="UTF-8" standalone="no"?>
<svg
   width="900"
   height="1000"
   version="1.1"
   id="svg1"
   sodipodi:docname="134F0.svg"
   inkscape:version="1.4.2 (f4327f4, 2025-05-13)"
   xmlns:inkscape="http://www.inkscape.org/namespaces/inkscape"
   xmlns:sodipodi="http://sodipodi.sourceforge.net/DTD/sodipodi-0.dtd"
   xmlns="http://www.w3.org/2000/svg"
   xmlns:svg="http://www.w3.org/2000/svg">
  <defs
     id="defs1" />
  <sodipodi:namedview
     id="namedview1"
     pagecolor="#ffffff"
     bordercolor="#666666"
     borderopacity="1.0"
     inkscape:showpageshadow="2"
     inkscape:pageopacity="0.0"
     inkscape:pagecheckerboard="0"
     inkscape:deskcolor="#d1d1d1"
     inkscape:zoom="0.755"
     inkscape:cx="118.54305"
     inkscape:cy="375.49669"
     inkscape:window-width="1680"
     inkscape:window-height="998"
     inkscape:window-x="-8"
     inkscape:window-y="-8"
     inkscape:window-maximized="1"
     inkscape:current-layer="svg1"
     showguides="true">
    <sodipodi:guide
       position="900,1000"
       orientation="0,-1"
       id="guide1"
       inkscape:locked="false" />
    <sodipodi:guide
       position="900,0"
       orientation="0,-1"
       id="guide2"
       inkscape:locked="false" />
  </sodipodi:namedview>
  <path
     id="path1"
     style="fill:#000000;stroke:none;stroke-width:0.999997"
     d="M 585.68945,0.09765625 C 575.91682,0.37888306 566.11052,1.2696549 556.26758,2.7695312 514.27104,7.6441294 483.52183,36.516081 464.02344,89.386719 c -2.62479,14.248821 -8.99889,27.561571 -19.12305,39.935551 -10.12417,11.99901 -16.6858,25.30979 -19.68555,39.93359 0,8.24932 5.24892,12.56253 15.74805,12.9375 10.49914,0.37497 11.81185,3.93611 3.9375,10.68555 -3.37472,0.74993 -4.68743,2.43772 -3.9375,5.0625 0.37497,2.62479 1.68768,4.31257 3.9375,5.0625 -4.8746,5.24957 -4.8746,8.8107 0,10.68554 5.24956,2.24982 7.12488,6.00044 5.625,11.25 -1.1249,5.62454 -0.18725,12.56123 2.8125,20.81055 2.99975,8.62428 17.99832,12.93555 44.99609,12.93555 l 34.8711,-5.06055 c -1.49988,5.62453 -0.56222,12.3737 2.8125,20.24805 -67.49443,0.74993 -109.48964,15.37344 -125.98828,43.87109 -56.62033,47.2461 -110.42998,97.30319 -161.42578,150.17383 C 238.47936,446.9197 215.4189,418.23528 179.42188,381.86328 143.79982,345.86625 119.01094,318.23598 116.99023,303.27148 108.53248,240.637 93.249507,200.0467 40.869141,163.75977 26.507882,154.21708 17.227576,152.78614 13.027344,159.4707 c -4.2014575,6.68126 3.513584,20.22171 23.144531,40.6211 19.630972,20.39947 31.423949,48.94969 35.380859,85.65039 C 41.836705,265.52362 31.047526,246.41154 28.068359,234.95898 25.089185,223.50644 18.704546,220.4501 8.9140625,225.79102 c 12.5017385,44.26281 30.9328205,74.76584 55.7910155,90.0332 14.29548,8.77997 31.142881,40.83366 52.640622,72.04687 44.15804,64.11437 94.71376,144.30285 114.38477,150.35547 22.12318,3.37472 57.18365,-16.31212 105.17969,-59.05859 59.62008,-52.1207 86.42919,-68.9946 80.42968,-50.62109 0,24.37297 5.06333,45.18501 15.1875,62.43359 10.12416,17.24858 34.87239,95.61698 74.24414,235.10547 L 322.84766,588.8457 c -27.74771,-25.12294 -52.12088,-37.68359 -73.11914,-37.68359 -58.87015,0.74994 -84.92914,25.12312 -78.17969,73.11914 l 31.49609,224.41797 c -44.62132,10.87408 -65.24386,44.43433 -61.86914,100.67969 -20.24833,4.12464 -38.80998,9.93618 -55.683592,17.43554 -16.498638,7.1246 -33.183033,9.93756 -50.056641,8.4375 C 18.561939,974.12704 6.7494432,982.37648 0,1000 h 893.73828 c -18.3735,-35.99703 -44.61999,-50.24545 -78.74219,-42.74609 -33.74722,7.49936 -56.6221,-7.31167 -68.62109,-44.4336 -11.62406,-36.74695 -31.30895,-44.62129 -59.05664,-23.62304 26.99777,-52.12072 27.74788,-106.86606 2.25,-164.23633 1.12491,-62.24488 3.75053,-117.74033 7.875,-166.48633 88.11775,27.74769 146.42421,41.62109 174.92187,41.62109 22.12316,-2.24981 33.18555,-11.81193 33.18555,-28.68554 C 886.05237,495.66641 841.05472,411.11144 770.56055,317.74414 763.7649,304.15283 751.89426,293.50313 734.94922,285.79688 l 87.6914,-152.65626 -34.68554,-19.92382 -92.63086,161.25781 h -0.002 c -10.47691,-1.71994 -21.95612,-2.85748 -34.43946,-3.41406 -10.12416,-13.49889 -15.56079,-25.31138 -16.31054,-35.43555 24.37297,-5.62453 44.80802,-18.37273 61.30664,-38.24609 16.87361,-19.87336 25.12488,-52.12087 24.74804,-96.74219 C 730.25196,56.390363 710.94215,27.518417 672.69531,14.019531 644.01017,3.8953666 615.00735,-0.74602418 585.68945,0.09765625 Z m 6.4336,25.87304675 c 15.46747,0.656196 32.95083,3.234746 52.44922,7.734375 38.62183,8.624288 58.11915,32.997448 58.49414,73.119142 0.37499,39.74672 -10.87296,68.8062 -33.7461,87.17969 -22.49814,18.74845 -41.2473,20.06117 -56.24609,3.9375 -6.74944,-6.74944 -8.06197,-12.18591 -3.9375,-16.31055 10.87391,-3.37473 15.93725,-11.81166 15.1875,-25.31055 11.62406,-14.24882 17.43555,-26.43637 17.43555,-36.56054 0.74992,-18.37349 -8.06205,-27.18547 -26.43555,-26.435551 -7.49936,0.749937 -13.87367,3.187855 -19.12305,7.312501 -36.74697,-24.372992 -68.61941,-35.24785 -95.61719,-32.623048 10.87411,-19.123422 27.93552,-31.87162 51.1836,-38.246094 11.43656,-3.187236 24.88799,-4.453071 40.35547,-3.796875 z m -80.36133,60.957031 c 22.91998,0.703068 47.31659,10.896144 73.18945,30.582036 l -3.9375,11.25 c 4.49963,2.62497 8.81303,3.37491 12.9375,2.25 5.99953,-15.7487 12.74869,-23.62305 20.24805,-23.62305 8.99926,-1.12491 13.12475,3.37388 12.375,13.49805 0,9.37423 -5.06333,19.874 -15.1875,31.49804 0,11.99899 -3.37361,17.06037 -10.12305,15.18555 -6.74944,-1.49988 -9.5624,-5.24854 -8.4375,-11.24805 -4.49962,16.87361 -0.56343,38.24628 11.81055,64.11914 11.99899,26.24784 21.18609,46.30778 27.56055,60.18164 6.37445,13.87386 16.49917,21.18561 30.37304,21.93555 13.87388,0.74994 29.81008,2.81278 47.8086,6.1875 17.99851,3.37472 22.87238,15.56229 14.62304,36.56055 -8.24934,20.99827 -26.47811,67.71177 -51.74414,141.17578 -6.95193,20.21619 -6.77254,45.74018 -7.3125,55.68164 l -10.125,185.60937 -101.24023,22.5 C 501.70944,581.16041 470.21206,489.29177 460.08789,474.66797 c -10.12416,-14.62379 -12.93713,-56.43343 -8.4375,-125.42774 -1.87484,-23.62305 17.43498,-35.43359 57.93164,-35.43359 41.99654,0 61.30834,-9.56213 57.93359,-28.68555 l -7.875,-23.06054 c -4.12463,-14.24882 -5.81046,-23.06083 -5.06054,-26.43555 -8.24932,-2.24981 -19.87429,-1.68722 -34.87305,1.6875 -25.4979,2.24982 -40.49646,1.12463 -44.99609,-3.375 -4.49963,-4.49963 -5.9999,-10.6862 -4.5,-18.56055 l 17.99804,-6.1875 c 4.12465,-2.24981 4.8748,-5.99849 2.25,-11.24804 l -25.31054,-2.25 c 5.9995,-12.74895 5.24938,-21.1859 -2.25,-25.31055 -10.12416,0.74994 -15.18555,-1.87549 -15.18555,-7.875 2.62478,-4.8746 7.8737,-13.87217 15.74805,-26.99609 7.87435,-13.12391 17.43647,-21.56086 28.68554,-25.31055 11.62404,-3.74969 23.06148,-3.1871 34.31055,1.6875 11.24907,4.49963 21.93444,8.06076 32.05859,10.68555 l 2.8125,-6.75 c -9.37423,-2.24982 -19.12193,-5.9985 -29.24609,-11.24805 -19.4984,-10.124165 -36.37227,-10.124165 -50.62109,0 1.87485,-6.749443 4.49832,-11.812779 7.87304,-15.187501 7.3119,-1.874845 14.78774,-2.69334 22.42774,-2.458985 z m -1.05469,28.894536 c -9.37423,0 -15.5608,1.50025 -18.56055,4.5 -2.62479,2.99975 -6.18591,4.5 -10.68554,4.5 v 5.0625 l 7.87304,1.125 c 10.12417,10.12417 26.06039,11.43688 47.8086,3.9375 l 14.0625,3.93554 1.125,-10.12304 -12.375,-1.125 c -11.99901,-6.74944 -21.74867,-10.6876 -29.24805,-11.8125 z m 231.73242,287.97656 c 14.6238,29.99752 43.30822,73.68246 86.05469,131.05273 -16.12369,-10.8741 -55.68292,-22.31153 -118.67773,-34.31054 z M 245.79297,618.09375 h 45.55859 l 206.98242,143.42578 -231.16796,69.74414 c 5.24957,-106.86618 -1.87465,-177.92281 -21.37305,-213.16992 z m 415.08984,134.98828 c 15.7487,60.37001 6.3741,112.86698 -28.12304,157.48828 -52.12072,31.12242 -115.30301,35.99628 -189.54688,14.62305 -74.24388,-21.74823 -144.73792,-17.435 -211.48242,12.9375 6.74945,-23.62305 61.86987,-62.24469 165.36133,-115.86524 z"
     sodipodi:nodetypes="sccccsccccccccccccsccscscsscccscccccccccccccccccccccccccccssscccccccccccsscccccccccssssccccscsccccsccccccscccccccsccccccccccccccccccccccccc" />
</svg>

<?xml version="1.0" encoding="UTF-8" standalone="no"?>
<svg
   width="900"
   height="1000"
   version="1.1"
   id="svg1"
   sodipodi:docname="134F0.svg"
   inkscape:version="1.4.2 (f4327f4, 2025-05-13)"
   xmlns:inkscape="http://www.inkscape.org/namespaces/inkscape"
   xmlns:sodipodi="http://sodipodi.sourceforge.net/DTD/sodipodi-0.dtd"
   xmlns="http://www.w3.org/2000/svg"
   xmlns:svg="http://www.w3.org/2000/svg">
  <defs
     id="defs1" />
  <sodipodi:namedview
     id="namedview1"
     pagecolor="#ffffff"
     bordercolor="#666666"
     borderopacity="1.0"
     inkscape:showpageshadow="2"
     inkscape:pageopacity="0.0"
     inkscape:pagecheckerboard="0"
     inkscape:deskcolor="#d1d1d1"
     inkscape:zoom="0.3775"
     inkscape:cx="321.8543"
     inkscape:cy="245.03311"
     inkscape:window-width="1680"
     inkscape:window-height="998"
     inkscape:window-x="-8"
     inkscape:window-y="-8"
     inkscape:window-maximized="1"
     inkscape:current-layer="svg1"
     showguides="true">
    <sodipodi:guide
       position="900,1000"
       orientation="0,-1"
       id="guide1"
       inkscape:locked="false" />
    <sodipodi:guide
       position="900,0"
       orientation="0,-1"
       id="guide2"
       inkscape:locked="false" />
    <sodipodi:guide
       position="706.59639,704.99755"
       orientation="-0.8671177,0.4981033"
       id="guide3"
       inkscape:locked="false" />
  </sodipodi:namedview>
  <path
     id="path1"
     style="fill:#000000;stroke:none;stroke-width:0.999997"
     d="M 585.68945 0.09765625 C 575.91682 0.37888306 566.11052 1.2696549 556.26758 2.7695312 C 514.27104 7.6441294 483.52183 36.516081 464.02344 89.386719 C 461.39865 103.63554 455.02455 116.94829 444.90039 129.32227 C 434.77622 141.32128 428.21459 154.63206 425.21484 169.25586 C 425.21484 177.50518 430.46376 181.81839 440.96289 182.19336 C 451.46203 182.56833 452.77474 186.12947 444.90039 192.87891 C 441.52567 193.62884 440.21296 195.31663 440.96289 197.94141 C 441.33786 200.5662 442.65057 202.25398 444.90039 203.00391 C 440.02579 208.25348 440.02579 211.81461 444.90039 213.68945 C 450.14995 215.93927 452.02527 219.68989 450.52539 224.93945 C 449.40049 230.56399 450.33814 237.50068 453.33789 245.75 C 456.33764 254.37428 471.33621 258.68555 498.33398 258.68555 L 533.20508 253.625 C 531.7052 259.24953 532.64286 265.9987 536.01758 273.87305 C 468.52315 274.62298 426.52794 289.24649 410.0293 317.74414 C 353.40897 364.99024 299.59932 415.04733 248.60352 467.91797 C 238.47936 446.9197 215.4189 418.23528 179.42188 381.86328 C 143.79982 345.86625 119.01094 318.23598 116.99023 303.27148 C 108.53248 240.637 93.249507 200.0467 40.869141 163.75977 C 26.507882 154.21708 17.227576 152.78614 13.027344 159.4707 C 8.8258865 166.15196 16.540928 179.69241 36.171875 200.0918 C 55.802847 220.49127 67.595824 249.04149 71.552734 285.74219 C 41.836705 265.52362 31.047526 246.41154 28.068359 234.95898 C 25.089185 223.50644 18.704546 220.4501 8.9140625 225.79102 C 21.415801 270.05383 39.846883 300.55686 64.705078 315.82422 C 79.000558 324.60419 95.847959 356.65788 117.3457 387.87109 C 161.50374 451.98546 212.05946 532.17394 231.73047 538.22656 C 253.85365 541.60128 288.91412 521.91444 336.91016 479.16797 C 396.53024 427.04727 423.33935 410.17337 417.33984 428.54688 C 417.33984 452.91985 422.40317 473.73189 432.52734 490.98047 C 442.6515 508.22905 467.39973 586.59745 506.77148 726.08594 L 322.84766 588.8457 C 295.09995 563.72276 270.72678 551.16211 249.72852 551.16211 C 190.85837 551.91205 164.79938 576.28523 171.54883 624.28125 L 203.04492 848.69922 C 158.4236 859.5733 137.80106 893.13355 141.17578 949.37891 C 120.92745 953.50355 102.3658 959.31509 85.492188 966.81445 C 68.99355 973.93905 52.309155 976.75201 35.435547 975.25195 C 18.561939 974.12704 6.7494432 982.37648 0 1000 L 893.73828 1000 C 875.36478 964.00297 849.11829 949.75455 814.99609 957.25391 C 781.24887 964.75327 758.37399 949.94224 746.375 912.82031 C 734.75094 876.07336 715.06605 868.19902 687.31836 889.19727 C 714.31613 837.07655 715.06624 782.33121 689.56836 724.96094 C 690.69327 662.71606 693.31889 607.22061 697.44336 558.47461 C 785.56111 586.2223 843.86757 600.0957 872.36523 600.0957 C 894.48839 597.84589 905.55078 588.28377 905.55078 571.41016 C 886.05237 495.66641 841.05472 411.11144 770.56055 317.74414 C 763.76491 304.15283 751.89425 293.50313 734.94922 285.79688 L 855.85352 75.322266 L 821.16797 55.398438 L 695.32422 274.47461 L 695.32227 274.47461 C 684.84536 272.75467 673.36615 271.61713 660.88281 271.06055 C 650.75865 257.56166 645.32202 245.74917 644.57227 235.625 C 668.94524 230.00047 689.38029 217.25227 705.87891 197.37891 C 722.75252 177.50555 731.00379 145.25804 730.62695 100.63672 C 730.25196 56.390363 710.94215 27.518417 672.69531 14.019531 C 644.01017 3.8953666 615.00735 -0.74602418 585.68945 0.09765625 z M 592.12305 25.970703 C 607.59052 26.626899 625.07388 29.205449 644.57227 33.705078 C 683.1941 42.329366 702.69142 66.702526 703.06641 106.82422 C 703.4414 146.57094 692.19345 175.63042 669.32031 194.00391 C 646.82217 212.75236 628.07301 214.06508 613.07422 197.94141 C 606.32478 191.19197 605.01225 185.7555 609.13672 181.63086 C 620.01063 178.25613 625.07397 169.8192 624.32422 156.32031 C 635.94828 142.07149 641.75977 129.88394 641.75977 119.75977 C 642.50969 101.38628 633.69772 92.5743 615.32422 93.324219 C 607.82486 94.074156 601.45055 96.512074 596.20117 100.63672 C 559.4542 76.263728 527.58176 65.38887 500.58398 68.013672 C 511.45809 48.89025 528.5195 36.142052 551.76758 29.767578 C 563.20414 26.580342 576.65557 25.314507 592.12305 25.970703 z M 511.76172 86.927734 C 534.6817 87.630802 559.07831 97.823878 584.95117 117.50977 L 581.01367 128.75977 C 585.5133 131.38474 589.8267 132.13468 593.95117 131.00977 C 599.9507 115.26107 606.69986 107.38672 614.19922 107.38672 C 623.19848 106.26181 627.32397 110.7606 626.57422 120.88477 C 626.57422 130.259 621.51089 140.75877 611.38672 152.38281 C 611.38672 164.3818 608.01311 169.44318 601.26367 167.56836 C 594.51423 166.06848 591.70127 162.31982 592.82617 156.32031 C 588.32655 173.19392 592.26274 194.56659 604.63672 220.43945 C 616.63571 246.68729 625.82281 266.74723 632.19727 280.62109 C 638.57172 294.49495 648.69644 301.8067 662.57031 302.55664 C 676.44419 303.30658 692.38039 305.36942 710.37891 308.74414 C 728.37742 312.11886 733.25129 324.30643 725.00195 345.30469 C 716.75261 366.30296 698.52384 413.01646 673.25781 486.48047 C 666.30588 506.69666 666.48527 532.22065 665.94531 542.16211 L 655.82031 727.77148 L 554.58008 750.27148 C 501.70944 581.16041 470.21206 489.29177 460.08789 474.66797 C 449.96373 460.04418 447.15076 418.23454 451.65039 349.24023 C 449.77555 325.61718 469.08537 313.80664 509.58203 313.80664 C 551.57857 313.80664 570.89037 304.24451 567.51562 285.12109 L 559.64062 262.06055 C 555.51599 247.81173 553.83016 238.99972 554.58008 235.625 C 546.33076 233.37519 534.70579 233.93778 519.70703 237.3125 C 494.20913 239.56232 479.21057 238.43713 474.71094 233.9375 C 470.21131 229.43787 468.71104 223.2513 470.21094 215.37695 L 488.20898 209.18945 C 492.33363 206.93964 493.08378 203.19096 490.45898 197.94141 L 465.14844 195.69141 C 471.14794 182.94246 470.39782 174.50551 462.89844 170.38086 C 452.77428 171.1308 447.71289 168.50537 447.71289 162.50586 C 450.33767 157.63126 455.58659 148.63369 463.46094 135.50977 C 471.33529 122.38586 480.89741 113.94891 492.14648 110.19922 C 503.77052 106.44953 515.20796 107.01212 526.45703 111.88672 C 537.7061 116.38635 548.39147 119.94748 558.51562 122.57227 L 561.32812 115.82227 C 551.95389 113.57245 542.20619 109.82377 532.08203 104.57422 C 512.58363 94.450055 495.70976 94.450055 481.46094 104.57422 C 483.33579 97.824777 485.95926 92.761441 489.33398 89.386719 C 496.64588 87.511874 504.12172 86.693379 511.76172 86.927734 z M 510.70703 115.82227 C 501.3328 115.82227 495.14623 117.32252 492.14648 120.32227 C 489.52169 123.32202 485.96057 124.82227 481.46094 124.82227 L 481.46094 129.88477 L 489.33398 131.00977 C 499.45815 141.13394 515.39437 142.44665 537.14258 134.94727 L 551.20508 138.88281 L 552.33008 128.75977 L 539.95508 127.63477 C 527.95607 120.88533 518.20641 116.94717 510.70703 115.82227 z M 742.43945 403.79883 C 757.06325 433.79635 785.74767 477.48129 828.49414 534.85156 C 812.37045 523.97746 772.81122 512.54003 709.81641 500.54102 L 742.43945 403.79883 z M 245.79297 618.09375 L 291.35156 618.09375 L 498.33398 761.51953 L 267.16602 831.26367 C 272.41559 724.39749 265.29137 653.34086 245.79297 618.09375 z M 660.88281 753.08203 C 676.63151 813.45204 667.25691 865.94901 632.75977 910.57031 C 580.63905 941.69273 517.45676 946.56659 443.21289 925.19336 C 368.96901 903.44513 298.47497 907.75836 231.73047 938.13086 C 238.47992 914.50781 293.60034 875.88617 397.0918 822.26562 L 660.88281 753.08203 z " />
</svg>
